resources/svg/file-word-fill.svg

<svg fill="currentColor" viewBox="0 0 24 24" xmlns="http://www.w3.org/2000/svg"><path d="M16 2L21 7V21.0082C21 21.556 20.5551 22 20.0066 22H3.9934C3.44476 22 3 21.5447 3 21.0082V2.9918C3 2.44405 3.44495 2 3.9934 2H16ZM14 8V12.989L12 11L10.0108 13L10 8H8V16H10L12 14L14 16H16V8H14Z"/></svg>

<svg xmlns="http://www.w3.org/2000/svg" viewBox="0 0 24 24" fill="currentColor">
    <g>
        <path fill="none" d="M0 0h24v24H0z"/>
        <path d="M16 2l5 5v14.008a.993.993 0 0 1-.993.992H3.993A1 1 0 0 1 3 21.008V2.992C3 2.444 3.445 2 3.993 2H16zm-2 6v4.989L12 11l-1.99 2L10 8H8v8h2l2-2 2 2h2V8h-2z"/>
    </g>
</svg>
